svgs/solid/house-flood.svg

<svg xmlns="http://www.w3.org/2000/svg" viewBox="0 0 576 512"><!--! Font Awesome Pro 6.0.0-alpha3 by @fontawesome - https://fontawesome.com License - https://fontawesome.com/license (Commercial License) --><path d="M32 287.1h32.02v100.9c8.527-7.877 19.54-12.51 31.35-12.51c40.88 0 34.45 39.62 97.04 39.62c64.52 0 53.23-39.66 95.32-40.02c42.2 .3642 31.4 40.02 95.9 40.02c62.64 0 55.89-39.62 97.03-39.62c11.79 0 22.8 4.617 31.32 12.47V287.1h32.01c17.74 0 31.1-14.4 31.1-32c0-9.053-3.842-17.89-10.92-24.09l-53.08-46.45l.0032-137.5c0-8.828-7.156-15.1-15.1-15.1l-63.1-.0076c-8.842 0-15.1 7.172-15.1 15.1v53.49l-106.9-93.55c-6.03-5.282-13.56-7.918-21.08-7.918c-6.198 0-14.15 1.848-21.08 7.918L10.92 231.9C-11.25 251.3 2.602 287.1 32 287.1zM224 213.4c0-11.87 9.625-21.37 21.37-21.37h85.25c11.75 0 21.37 9.5 21.37 21.37v85.25c0 11.87-9.625 21.37-21.37 21.37H245.4c-11.75 0-21.37-9.625-21.37-21.37V213.4zM192.3 511.9C192.4 511.9 192.3 511.9 192.3 511.9C192.3 511.9 192.3 511.9 192.3 511.9c-5.09 0-10.02-.629-15.1-1.009C182.3 511.2 187.3 511.9 192.3 511.9zM562.4 448.4c-60.04-6.321-66.02-39.99-81.73-39.99c-19.18 0-26.55 39.62-97.04 39.62c-70.42 0-77.84-39.87-95.62-40.02c-17.69 .1536-25.2 40.02-95.6 40.02c-69.46 0-77.99-39.29-96.83-39.29c-.4287 0-.8567 .0157-1.283 .0472c.5156-.0747 1.055-.2525 1.581-.2525c.0239 0-.0241-.0008 0 0c-.1816-.0059-.3175-.1225-.4992-.1225c-.2381 0-7.418 .6709-11.21 5.281c-37.31 45.4-84.12 22.16-84.12 50.33v32.03c.0019 8.625 6.93 15.95 15.43 15.95c.7059 0 32.66-1.291 67.38-18.67c4.516-2.26 9.049-4.502 13.31-7.141c28.16 17.15 62.23 25.68 96.16 25.68c34.13 0 68.11-8.639 95.68-25.61c27.46 16.89 61.23 25.16 95.21 25.16c4.507 0 9.018-.1454 13.52-.4355c-4.383 .3714-8.746 .8158-13.14 .8158c-.0193 0 .0193 0 0 0c.0547 0-.0547 0 0 0c1.015 0 52.94 .7701 96.28-25.62c37.29 23.08 76.68 25.81 80.69 25.81c8.504 0 15.43-7.328 15.43-15.95v-32.03C575.1 456.2 570.3 449.2 562.4 448.4z"/></svg>

<svg xmlns="http://www.w3.org/2000/svg" viewBox="0 0 576 512"><!-- Font Awesome Pro 6.0.0-alpha2 by @fontawesome - https://fontawesome.com License - https://fontawesome.com/license (Commercial License) --><path d="M32.006 287.999H64.029V388.911C72.556 381.034 83.571 376.405 95.38 376.405C136.261 376.405 129.833 416.022 192.418 416.022C256.941 416.022 245.644 376.365 287.737 376.001L288.015 375.997L288.292 376.001C330.495 376.365 319.135 416.022 383.639 416.022C446.274 416.022 439.526 376.405 480.673 376.405C492.467 376.405 503.471 381.022 511.995 388.878V287.999H544C561.736 287.999 576 273.601 576 255.999C576 246.947 572.158 238.103 565.078 231.906L511.995 185.46V47.984C511.995 39.156 504.838 31.984 495.995 31.984H431.999C423.158 31.984 416.001 39.156 416.001 47.984V101.472L309.081 7.922C303.05 2.639 295.526 0 288.004 0C281.807 0 273.858 1.851 266.925 7.922L10.928 231.906C-11.245 251.314 2.607 287.999 32.006 287.999ZM224.017 213.374C224.017 201.499 233.642 191.999 245.392 191.999H330.637C342.387 191.999 352.012 201.499 352.012 213.374V298.624C352.012 310.499 342.387 319.999 330.637 319.999H245.392C233.642 319.999 224.017 310.374 224.017 298.624V213.374ZM192.356 511.811C192.41 511.811 192.465 511.801 192.52 511.801C192.502 511.801 192.484 511.801 192.467 511.801C187.377 511.801 182.311 511.241 177.233 510.862C182.274 511.239 187.301 511.811 192.356 511.811ZM562.406 448.397C502.366 442.076 496.389 408.405 480.673 408.405C461.497 408.405 454.123 448.023 383.638 448.023C313.218 448.023 305.8 408.153 288.015 407.999C270.325 408.152 262.815 448.023 192.419 448.023C122.964 448.023 114.427 408.733 95.585 408.733C95.156 408.733 94.728 408.749 94.302 408.78C94.818 408.705 95.321 408.527 95.847 408.527C95.871 408.527 95.895 408.527 95.919 408.528C95.737 408.522 95.566 408.405 95.384 408.405C95.146 408.405 87.966 409.076 84.177 413.686C46.862 459.084 0.057 435.847 0.057 464.014V496.045C0.059 504.671 6.987 511.999 15.489 511.999C16.195 511.999 48.145 510.708 82.865 493.327L82.866 493.329C87.382 491.069 91.913 488.825 96.177 486.186C124.334 503.331 158.429 511.81 192.356 511.81C226.482 511.81 260.439 503.232 288.015 486.264C315.472 503.158 349.241 511.424 383.22 511.424C387.727 511.424 392.238 511.279 396.738 510.989C392.355 511.36 387.976 511.801 383.581 511.801C383.562 511.801 383.543 511.801 383.523 511.801C383.578 511.801 383.633 511.811 383.687 511.811C384.703 511.811 436.54 512.575 479.88 486.186C517.173 509.267 556.555 511.999 560.566 511.999C569.07 511.999 575.998 504.671 576 496.045V464.014C576 456.163 570.312 449.202 562.406 448.397Z "></path></svg>
